packages/bezier-icons/icons/app-plus.svg

<svg width="24" height="24" viewBox="0 0 24 24" fill="none" xmlns="http://www.w3.org/2000/svg">
<path fill-rule="evenodd" clip-rule="evenodd" d="M16 4C16 3.44772 16.4477 3 17 3C17.5523 3 18 3.44772 18 4V6H20C20.5523 6 21 6.44772 21 7C21 7.55228 20.5523 8 20 8H18V10C18 10.5523 17.5523 11 17 11C16.4477 11 16 10.5523 16 10V8H14C13.4477 8 13 7.55228 13 7C13 6.44772 13.4477 6 14 6H16V4ZM12 3L10.3572 3C9.27341 2.99999 8.39926 2.99998 7.69138 3.05782C6.96253 3.11737 6.32234 3.24318 5.73005 3.54497C4.78924 4.02433 4.02434 4.78924 3.54497 5.73005C3.24318 6.32234 3.11737 6.96253 3.05782 7.69138C2.99998 8.39924 2.99999 9.27338 3 10.3571V10.3572V13.6428V13.6429C2.99999 14.7266 2.99998 15.6008 3.05782 16.3086C3.11737 17.0375 3.24318 17.6777 3.54497 18.27C4.02434 19.2108 4.78924 19.9757 5.73005 20.455C6.32234 20.7568 6.96253 20.8826 7.69138 20.9422C8.39923 21 9.27334 21 10.3571 21H10.3572H13.6428H13.6429C14.7267 21 15.6008 21 16.3086 20.9422C17.0375 20.8826 17.6777 20.7568 18.27 20.455C19.2108 19.9757 19.9757 19.2108 20.455 18.27C20.7568 17.6777 20.8826 17.0375 20.9422 16.3086C21 15.6008 21 14.7267 21 13.6429V13.6428V12H19V13.6C19 14.7366 18.9992 15.5289 18.9488 16.1458C18.8994 16.7509 18.8072 17.0986 18.673 17.362C18.3854 17.9265 17.9265 18.3854 17.362 18.673C17.0986 18.8072 16.7509 18.8994 16.1458 18.9488C15.5289 18.9992 14.7366 19 13.6 19H10.4C9.2634 19 8.47108 18.9992 7.85424 18.9488C7.24907 18.8994 6.90139 18.8072 6.63803 18.673C6.07354 18.3854 5.6146 17.9265 5.32698 17.362C5.1928 17.0986 5.10062 16.7509 5.05118 16.1458C5.00078 15.5289 5 14.7366 5 13.6V10.4C5 9.2634 5.00078 8.47108 5.05118 7.85424C5.10062 7.24907 5.1928 6.90138 5.32698 6.63803C5.6146 6.07354 6.07354 5.6146 6.63803 5.32698C6.90139 5.19279 7.24907 5.10062 7.85424 5.05118C8.47108 5.00078 9.2634 5 10.4 5H12V3Z" fill="#313234"/>
</svg>

<svg xmlns="http://www.w3.org/2000/svg" width="24" height="24" fill="none" viewBox="0 0 24 24"><path fill="#313234" fill-rule="evenodd" d="M16 4a1 1 0 1 1 2 0v2h2a1 1 0 1 1 0 2h-2v2a1 1 0 1 1-2 0V8h-2a1 1 0 1 1 0-2h2zm-4-1h-1.643C9.273 3 8.4 3 7.691 3.058c-.728.06-1.369.185-1.96.487A5 5 0 0 0 3.544 5.73c-.302.592-.428 1.233-.487 1.961C3 8.4 3 9.273 3 10.357v3.286c0 1.084 0 1.958.058 2.666.06.729.185 1.369.487 1.961a5 5 0 0 0 2.185 2.185c.592.302 1.233.428 1.961.487C8.4 21 9.273 21 10.357 21h3.286c1.084 0 1.958 0 2.666-.058.729-.06 1.369-.185 1.961-.487a5 5 0 0 0 2.185-2.185c.302-.592.428-1.232.487-1.961C21 15.6 21 14.727 21 13.643V12h-2v1.6c0 1.137 0 1.929-.051 2.546-.05.605-.142.953-.276 1.216a3 3 0 0 1-1.311 1.311c-.263.134-.611.226-1.216.276-.617.05-1.41.051-2.546.051h-3.2c-1.137 0-1.929 0-2.546-.051-.605-.05-.953-.142-1.216-.276a3 3 0 0 1-1.311-1.311c-.134-.263-.226-.611-.276-1.216C5.001 15.529 5 14.736 5 13.6v-3.2c0-1.137 0-1.929.051-2.546.05-.605.142-.953.276-1.216a3 3 0 0 1 1.311-1.311c.263-.134.611-.226 1.216-.276C8.471 5.001 9.264 5 10.4 5H12z" clip-rule="evenodd"/></svg>
